src/icons/astyle.svg

<svg viewBox="0 0 24 24" xmlns="http://www.w3.org/2000/svg">
  <path
    d="M8.203 5.447 5.83 6.777l1.329-2.374-1.33-2.374 2.374 1.33 2.374-1.33-1.33 2.374 1.33 2.374-2.374-1.33m11.394 9.305 2.374-1.329-1.33 2.374 1.33 2.373-2.374-1.329-2.374 1.33 1.33-2.374-1.33-2.374 2.374 1.33m2.374-12.724-1.33 2.374 1.33 2.374-2.374-1.33-2.374 1.33 1.33-2.374-1.33-2.374 2.374 1.33 2.374-1.33m-8.223 10.236 2.317-2.316-2.013-2.013-2.317 2.317 2.013 2.012m.978-5.212 2.222 2.222c.37.35.37.968 0 1.338L5.867 21.694c-.37.37-.987.37-1.339 0l-2.222-2.221c-.37-.352-.37-.969 0-1.34l11.081-11.08c.37-.37.988-.37 1.34 0z"
    fill="#ef5350"
  />
</svg>

<svg
  width="24"
  height="24"
  viewBox="0 0 24 24"
  fill="none"
  xmlns="http://www.w3.org/2000/svg"
>
  <path
    d="M8.203 5.447L5.83 6.777L7.159 4.403L5.829 2.029L8.203 3.359L10.577 2.029L9.247 4.403L10.577 6.777L8.203 5.447ZM19.597 14.752L21.971 13.423L20.641 15.797L21.971 18.17L19.597 16.841L17.223 18.171L18.553 15.797L17.223 13.423L19.597 14.753M21.971 2.029L20.641 4.403L21.971 6.777L19.597 5.447L17.223 6.777L18.553 4.403L17.223 2.029L19.597 3.359L21.971 2.029ZM13.748 12.265L16.065 9.949L14.052 7.936L11.735 10.253L13.748 12.265ZM14.726 7.053L16.948 9.275C17.318 9.625 17.318 10.243 16.948 10.613L5.867 21.694C5.497 22.064 4.88 22.064 4.528 21.694L2.306 19.473C1.936 19.121 1.936 18.504 2.306 18.133L13.387 7.053C13.757 6.683 14.375 6.683 14.727 7.053H14.726Z"
    fill="#EF5350"
  />
</svg>
